X:1
T:Lady Harriet's -- Reel
R:reel
B:Ryan's Mammoth Collection
N:248
Z:Contributed by Ray Davies,  ray:davies99.freeserve.co.uk
M:2/4
L:1/16
K:D
v(3.D.D.D (AF) .D2(fe) | dBAF EDEF | (3.D.D.D (AF) .D2(fd) |\
 Bcde (fd).d2 |
 (3.D.D.D (AF) .D2(fe) | dBAF EDEF | (3.D.D.D (AF) .D2(fd) |\
 Bcde (fd).d2 H|]
|:ve3uf gfed | cdef gfeg | fdcd BdAF | Adeg fddg |
fdcd BdAF | GBAF BEEF | DFEG FAGB | Adeg (fd).d2 "_D.C.":|
